X:1
T:Water Music, HWV 350
T:George Frederic Handel
%%score { ( 1 2 ) | ( 3 4 ) }
L:1/8
Q:1/4=110
M:3/4
K:Bb
V:1 treble nm="Piano" snm="Pno."
V:2 treble 
V:3 bass 
V:4 bass 
V:1
!p!"^Minuet" GA B2 A2 | [B,G]2 [Ge]2 [Gd]2 | [EGc]2 [DGB]2 [D^FA]2 | G^FGABc | [Bd]2 [dg]2 [Bf]2 | %5
 [ce]2 [Bd]2 [Ac]2 | [Bf]2 [GB]2 [FA]2 | [DB]6 | GA B2 A2 | [B,G]2 [Ge]2 [Gd]2 | %10
 [EGc]2 [DGB]2 [D^FA]2 | G^FGABc | [Bd]2 [dg]2 [Bf]2 | [ce]2 [Bd]2 [Ac]2 | [Bf]2 [GB]2 [FA]2 | %15
 [DB]6 |:"^play repeat signs after D.C." [Bdb]2 [Bda]2 [Beg]2 | f2 edcB | g2 f2 e2 | d2 cBAG | %20
 e2 d2 c2 | B2 ABGA | ^FG (TG3 F/)G/ | A=B (TB3 A/)B/ | cd e2 d2 | =ea T^f4 | g2 [GB]2 [^FA]2 | %27
 !fermata![B,G]6!fine! ::"^TRIO" d2 b2 B2 | A6 | d2 a2 A2 | G4 G2 | d2 g2 G2 | ^F4 A2 | d2 c2 B2 | %35
 A2 G^F=ED | d2 b2 B2 | A6 | d2 a2 A2 | G6 | d2 g2 G2 | ^F2 =ED d2 | cB TA3 G | !fermata![B,G]6 :: %44
 (dc B2 f2) | f6 | (cB A2 f2) | f6 | (BA G2 f2) | f6 | (f2 edcB) | AB c2 F2 | (dc B2) [Bb]2 | %53
 [Bb]6 | dc B2 [Bb]2 | [Bb]6 | e2 d2 c2 | f2 (edcB) | [Gc]2 [DF]2 [CA]2 | [DB]6 :| %60
"^da capo Trio" d2 b2 B2 | A6 | d2 a2 A2 | G4 G2 | d2 g2 G2 | ^F4 A2 | d2 c2 B2 | A2 G^F=ED | %68
 d2 b2 B2 | A6 | d2 a2 A2 | G6 | d2 g2 G2 | ^F2 =ED d2 | cB TA3 G | !fermata![B,G]6!D.C.! |] %76
V:2
 B,2 [DG]2 [D^F]2 | x6 | x6 | B,2 D2 B2 | x6 | x6 | x6 | x6 | B,2 [DG]2 [D^F]2 | x6 | x6 | %11
 B,2 D2 B2 | x6 | x6 | x6 | x6 |: x6 | B4 x2 | B2 B2 A2 | B2 D2 D2 | G4 ^F2 | G2 ^F2 B,2 | %22
 C2 D2 B,2 | ^F2 G2 D2 | G2 G2 G2 | G2 d2 A2 | B2 x4 | x6 :: B4 G2 | x6 | A4 F2 | x6 | G4 x2 | %33
 D4 ^F2 | G2 ^F2 G2 | [D^F]4 C2 | B4 G2 | x6 | A4 F2 | x6 | G4 x2 | D4 G2 | G2 G2 ^F2 | x6 :: x6 | %45
 x6 | x6 | x6 | x6 | x6 | B4 G2 | F4 x2 | x6 | x6 | x6 | x6 | A6 | B4 x2 | x6 | x6 :| B4 G2 | x6 | %62
 A4 F2 | x6 | G4 x2 | D4 ^F2 | G2 ^F2 G2 | [D^F]4 C2 | B4 G2 | x6 | A4 F2 | x6 | G4 x2 | D4 G2 | %74
 G2 G2 ^F2 | x6 |] %76
V:3
 G,,2 G,2 D,2 | E,2 C,2 B,,2 | A,,2 D,2 D,,2 | G,,2 B,,2 D,2 | G,2 B,2 G,2 | C,2 F,2 E,2 | %6
 D,2 E,2 F,2 | B,,2 (D,C,B,,A,,) | G,,2 G,2 D,2 | E,2 C,2 B,,2 | A,,2 D,2 D,,2 | G,,2 B,,2 D,2 | %12
 G,2 B,2 G,2 | C,2 F,2 E,2 | D,2 E,2 F,2 | B,,2 (D,C,B,,A,,) |: G,,2 F,2 E,2 | D,2 B,2 D,2 | %18
 E,2 D,2 C,2 | B,,2 G,2 B,,2 | C,2 B,,2 A,,2 | G,,2 D,2 E,2 | A,,2 B,,2 G,,2 | D,2 G,2 E,2 | %24
 E,2 C2 =B,2 | C2 A,2 D2 | B,G, D2 D,2 | !fermata!G,,6 :: x2 B,2 E2 | x2 A,2 E2 | (x2 A,2 D2 | %31
 x2) G,2 D2 | (x2 G,2 C2 | D,2) A,2 C2 | B,2 A,2 G,2 | D,2 =E,2 ^F,2 | (x2 B,2 E2 | x2) A,2 E2 | %38
 (x2 A,2 D2 | x2) G,2 D2 | (x2 G,2 C2 | D,2) C2 B,2 | G,2 D2 D,2 | G,2 D,2 G,,2 :: (x2 D2 F2 | %45
 x2) C2 F2 | (x2 C2 F2 | x2) B,2 F2 | (x2 B,2 E2 | x2) A,2 E2 | D2 B,2 E,2 | x2 A,2 C2 | %52
 (x2 F,2 B,2 | x2 G,2 C2 | x2 B,2 D2 | x2) B,2 E2 | x2 G,2 A,2 | B,2 A,2 B,2 | B,2 F,2 F,,2 | %59
 B,,2 (DCB,A,) :| x2 B,2 E2 | x2 A,2 E2 | (x2 A,2 D2 | x2) G,2 D2 | (x2 G,2 C2 | D,2) A,2 C2 | %66
 B,2 A,2 G,2 | D,2 =E,2 ^F,2 | (x2 B,2 E2 | x2) A,2 E2 | (x2 A,2 D2 | x2) G,2 D2 | (x2 G,2 C2 | %73
 D,2) C2 B,2 | G,2 D2 D,2 | G,2 D,2 G,,2 |] %76
V:4
 x6 | x6 | x6 | x6 | x6 | x6 | x6 | x6 | x6 | x6 | x6 | x6 | x6 | x6 | x6 | x6 |: x6 | x6 | x6 | %19
 x6 | x6 | x6 | x6 | x6 | x6 | x6 | x6 | x6 :: G,6 | F,6 | F,6 | E,6 | E,6 | x6 | x6 | x6 | G,6 | %37
 F,6 | F,6 | E,6 | E,6 | x6 | x6 | x6 :: B,6 | A,6 | A,6 | G,6 | G,6 | F,6 | x6 | F,6 | D,6 | E,6 | %54
 F,6 | G,6 | C,6 | D,2 F,2 G,2 | E,2 x4 | x6 :| G,6 | F,6 | F,6 | E,6 | E,6 | x6 | x6 | x6 | G,6 | %69
 F,6 | F,6 | E,6 | E,6 | x6 | x6 | x6 |] %76

